img/icons/Exit.svg

<svg width="24" height="24" viewBox="0 0 24 24" fill="none" xmlns="http://www.w3.org/2000/svg">
<path d="M12 15L9 12M9 12L12 9M9 12L20 12M20 17C20 17.9319 20 18.3978 19.8478 18.7654C19.6448 19.2554 19.2552 19.6448 18.7651 19.8478C18.3976 20 17.9319 20 17 20H7.2C6.07989 20 5.52004 20 5.09221 19.782C4.71589 19.5902 4.40952 19.2844 4.21777 18.908C3.99979 18.4802 4 17.9201 4 16.8V7.19995C4 6.07985 3.99979 5.51986 4.21777 5.09204C4.40952 4.71572 4.71589 4.40973 5.09221 4.21799C5.52004 4 6.07989 4 7.2 4H17C17.9319 4 18.3976 4 18.7651 4.15224C19.2552 4.35523 19.6448 4.74456 19.8478 5.23462C20 5.60216 20 6.0681 20 6.99999" stroke="#8C8D92" stroke-width="2" stroke-linecap="round" stroke-linejoin="round"/>
</svg>

<svg width="24" height="24" fill="none" xmlns="http://www.w3.org/2000/svg"><path d="m12 15-3-3m0 0 3-3m-3 3h11m0 5c0 .932 0 1.398-.152 1.765a2 2 0 0 1-1.083 1.083C18.398 20 17.932 20 17 20H7.2c-1.12 0-1.68 0-2.108-.218a2 2 0 0 1-.874-.874C4 18.48 4 17.92 4 16.8V7.2c0-1.12 0-1.68.218-2.108.192-.376.498-.682.874-.874C5.52 4 6.08 4 7.2 4H17c.932 0 1.398 0 1.765.152a2 2 0 0 1 1.083 1.083C20 5.602 20 6.068 20 7" stroke="#8C8D92" stroke-width="2" stroke-linecap="round" stroke-linejoin="round"/></svg>
